X:16
T: WIE SCHEINEN DIE STERNLEIN SO HELL
N: B0502A
O: Europa, Mitteleuropa, Deutschland, Rheinland
R: Abschieds - Lied
M: 6/8
L: 1/8
K: G
D | DB,CDGB | B2AF2
D | GABdcB | A4z
A | ABAGed | d2cB2
B | A2Bc2d | B4z
A | F2GA2B | G4z

